study/img/odensity.svg

<?xml version="1.0" standalone="no"?><!DOCTYPE svg PUBLIC "-//W3C//DTD SVG 1.1//EN" "http://www.w3.org/Graphics/SVG/1.1/DTD/svg11.dtd"><svg style="height: 100px; width: 200px;" id="outlierDens" version="1.1" xmlns="http://www.w3.org/2000/svg" xmlns:xlink="http://www.w3.org/1999/xlink"><defs xmlns="http://www.w3.org/1999/xhtml"><style type="text/css"><![CDATA[
#panel { display: grid; grid-gap: 10px 10px; margin: 20px; }
#panel button { align-self: center; margin: auto; }
.vis { border-style: solid; border-width: 5px; border-color: rgb(255, 255, 255); }
.selected { border-color: crimson; }
.vis:hover { border-style: solid; border-width: 5px; border-color: rgb(51, 51, 51); }
#prompt { color: gray; }
#prompt span { color: black; }
.fig { display: flex; flex-wrap: wrap; width: 50%; margin: auto; justify-content: center; }
.figImg { width: 30%; }
.figCaption { font-size: 85%; align-self: center; }
input[type="submit"], button { background-color: rgb(51, 51, 51); border: none; color: white; padding: 5px 8px; text-align: center; text-decoration: none; display: inline-block; border-radius: 4px; font-size: 16px; }
input[type="submit"]:disabled, button:disabled { background-color: rgb(221, 221, 221); }
input[type="submit"]:hover:enabled, button:hover:enabled { background-color: rgb(85, 85, 85); }]]></style></defs><path fill="#333" d="M0,99.99991811092808C1.3333333333333333,99.99974899196832,2.666666666666667,99.99957987300857,4,99.99890339716954C5.333333333333333,99.99822692133051,6.666666666666667,99.99570314554406,8,99.98930264229307C9.333333333333334,99.98290213904208,10.666666666666666,99.96741534212443,12,99.92364074178715C13.333333333333334,99.87986614144988,14.666666666666666,99.8152615437243,16,99.59850314759862C17.333333333333332,99.38174475147294,18.666666666666668,99.13415204939507,20,98.4300463520819C21.333333333333332,97.72594065476873,22.666666666666668,96.85395400818922,24,95.37386896371959C25.333333333333336,93.89378391924994,26.666666666666668,91.85817754252604,28.000000000000004,89.54953608526407C29.333333333333336,87.2408946280021,30.666666666666668,84.14688823403839,32,81.52202022014778C33.333333333333336,78.89715220625718,34.666666666666664,75.83819891568002,36,73.8003280019204C37.333333333333336,71.76245708816079,38.666666666666664,69.52670556056427,40,69.29479473759007C41.333333333333336,69.06288391461587,42.666666666666664,68.94692850312876,44,68.94692850312876C45.333333333333336,68.94692850312876,46.666666666666664,70.49250513342763,48,71.06061879974415C49.333333333333336,71.62873246606067,50.666666666666664,72.35561050102791,52,72.35561050102791C53.333333333333336,72.35561050102791,54.66666666666667,71.11692057656016,56.00000000000001,68.63954072762468C57.333333333333336,66.16216087868919,58.66666666666667,61.63704917362766,60,55.96817354326982C61.333333333333336,50.29929791291197,62.666666666666664,41.89783288165245,64,34.62628694547759C65.33333333333333,27.354741009302728,66.66666666666667,18.10994575046693,68,12.338897926220668C69.33333333333333,6.567850101974403,70.66666666666667,0,72,0C73.33333333333333,0,74.66666666666667,0.7581713318248215,76,2.2745139954744644C77.33333333333333,3.790856659124107,78.66666666666667,10.05248785831003,80,14.146252274012312C81.33333333333333,18.240016689714594,82.66666666666667,23.401547308422927,84,26.837100489688154C85.33333333333333,30.272653670953382,86.66666666666667,32.99119225762795,88,34.759571361603676C89.33333333333333,36.5279504655794,90.66666666666667,37.145641290546784,92,37.44737511354251C93.33333333333333,37.74910893653824,94.66666666666667,37.59824202504038,96,37.89997584803611C97.33333333333333,38.201709671031836,98.66666666666667,38.66539438938411,100,39.757586815887876C101.33333333333333,40.84977924239164,102.66666666666667,42.814784020324396,104,44.45313040705871C105.33333333333333,46.09147679379302,106.66666666666667,48.77378902500087,108,49.587665136293744C109.33333333333334,50.401541247586614,110.66666666666667,50.80847930323305,112.00000000000001,50.80847930323305C113.33333333333334,50.80847930323305,114.66666666666666,48.43589633411409,115.99999999999999,47.313716768034965C117.33333333333333,46.19153720195583,118.66666666666666,44.07540190675827,120,44.07540190675827C121.33333333333333,44.07540190675827,122.66666666666667,44.79355012124382,124,46.229846550214916C125.33333333333333,47.66614297918601,126.66666666666667,50.881345613423015,128,53.367156554435624C129.33333333333334,55.85296749544823,130.66666666666666,58.98893172496911,132,61.14471219629058C133.33333333333334,63.30049266761204,134.66666666666666,64.97164932577365,136,66.30183938236439C137.33333333333334,67.63202943895513,138.66666666666666,68.11672885300156,140,69.12585253583498C141.33333333333334,70.1349762186684,142.66666666666666,70.9589239746504,144,72.35658147936493C145.33333333333334,73.75423898407946,146.66666666666666,75.81353021602887,148,77.51179756412213C149.33333333333334,79.2100649122154,150.66666666666666,81.33875549737019,152,82.54618556792457C153.33333333333334,83.75361563847895,154.66666666666666,84.68063526501416,156,84.75637798744837C157.33333333333334,84.83212070988259,158.66666666666666,84.79424934866549,160,84.8699920710997C161.33333333333334,84.94573479353392,162.66666666666666,85.25282997522469,164,86.01850578347464C165.33333333333334,86.78418159172459,166.66666666666666,88.2782204646628,168,89.55125424924776C169.33333333333334,90.82428803383273,170.66666666666666,92.71594010250458,172,93.65670849098446C173.33333333333334,94.59747687946434,174.66666666666666,95.19586458012702,176,95.19586458012702C177.33333333333334,95.19586458012702,178.66666666666666,93.76010068665096,180,90.88857289969884C181.33333333333334,88.01704511274673,182.66666666666666,83.47002410968965,184,77.80775268277375C185.33333333333334,72.14548125585786,186.66666666666666,63.67309457023026,188,56.914944338203455C189.33333333333334,50.15679410617665,190.66666666666666,41.105200091373554,192,37.258851290612924C193.33333333333334,33.412502489852294,194.66666666666666,31.489328089471982,196,31.489328089471982C197.33333333333334,31.489328089471982,198.66666666666666,37.57507586753232,200,43.660823645592664L200,100C198.66666666666666,100,197.33333333333334,100,196,100C194.66666666666666,100,193.33333333333334,100,192,100C190.66666666666666,100,189.33333333333334,100,188,100C186.66666666666666,100,185.33333333333334,100,184,100C182.66666666666666,100,181.33333333333334,100,180,100C178.66666666666666,100,177.33333333333334,100,176,100C174.66666666666666,100,173.33333333333334,100,172,100C170.66666666666666,100,169.33333333333334,100,168,100C166.66666666666666,100,165.33333333333334,100,164,100C162.66666666666666,100,161.33333333333334,100,160,100C158.66666666666666,100,157.33333333333334,100,156,100C154.66666666666666,100,153.33333333333334,100,152,100C150.66666666666666,100,149.33333333333334,100,148,100C146.66666666666666,100,145.33333333333334,100,144,100C142.66666666666666,100,141.33333333333334,100,140,100C138.66666666666666,100,137.33333333333334,100,136,100C134.66666666666666,100,133.33333333333334,100,132,100C130.66666666666666,100,129.33333333333334,100,128,100C126.66666666666667,100,125.33333333333333,100,124,100C122.66666666666667,100,121.33333333333333,100,120,100C118.66666666666666,100,117.33333333333333,100,115.99999999999999,100C114.66666666666666,100,113.33333333333334,100,112.00000000000001,100C110.66666666666667,100,109.33333333333334,100,108,100C106.66666666666667,100,105.33333333333333,100,104,100C102.66666666666667,100,101.33333333333333,100,100,100C98.66666666666667,100,97.33333333333333,100,96,100C94.66666666666667,100,93.33333333333333,100,92,100C90.66666666666667,100,89.33333333333333,100,88,100C86.66666666666667,100,85.33333333333333,100,84,100C82.66666666666667,100,81.33333333333333,100,80,100C78.66666666666667,100,77.33333333333333,100,76,100C74.66666666666667,100,73.33333333333333,100,72,100C70.66666666666667,100,69.33333333333333,100,68,100C66.66666666666667,100,65.33333333333333,100,64,100C62.666666666666664,100,61.333333333333336,100,60,100C58.66666666666667,100,57.333333333333336,100,56.00000000000001,100C54.66666666666667,100,53.333333333333336,100,52,100C50.666666666666664,100,49.333333333333336,100,48,100C46.666666666666664,100,45.333333333333336,100,44,100C42.666666666666664,100,41.333333333333336,100,40,100C38.666666666666664,100,37.333333333333336,100,36,100C34.666666666666664,100,33.333333333333336,100,32,100C30.666666666666668,100,29.333333333333336,100,28.000000000000004,100C26.666666666666668,100,25.333333333333336,100,24,100C22.666666666666668,100,21.333333333333332,100,20,100C18.666666666666668,100,17.333333333333332,100,16,100C14.666666666666666,100,13.333333333333334,100,12,100C10.666666666666666,100,9.333333333333334,100,8,100C6.666666666666667,100,5.333333333333333,100,4,100C2.666666666666667,100,1.3333333333333333,100,0,100Z"/></svg>

<?xml version="1.0" encoding="utf-8"?>
<!-- Generator: Adobe Illustrator 16.0.4, SVG Export Plug-In . SVG Version: 6.00 Build 0)  -->
<!DOCTYPE svg PUBLIC "-//W3C//DTD SVG 1.1//EN" "http://www.w3.org/Graphics/SVG/1.1/DTD/svg11.dtd">
<svg version="1.1" id="outlierDens" xmlns="http://www.w3.org/2000/svg" xmlns:xlink="http://www.w3.org/1999/xlink" x="0px"
	 y="0px" width="200px" height="100px" viewBox="0 0 200 100" enable-background="new 0 0 200 100" xml:space="preserve">
<defs  xmlns="http://www.w3.org/1999/xhtml">
	<style  type="text/css">
		<![CDATA[
#panel { display: grid; grid-gap: 10px 10px; margin: 20px; }
#panel button { align-self: center; margin: auto; }
.vis { border-style: solid; border-width: 5px; border-color: rgb(255, 255, 255); }
.selected { border-color: crimson; }
.vis:hover { border-style: solid; border-width: 5px; border-color: rgb(51, 51, 51); }
#prompt { color: gray; }
#prompt span { color: black; }
.fig { display: flex; flex-wrap: wrap; width: 50%; margin: auto; justify-content: center; }
.figImg { width: 30%; }
.figCaption { font-size: 85%; align-self: center; }
input[type="submit"], button { background-color: rgb(51, 51, 51); border: none; color: white; padding: 5px 8px; text-align: center; text-decoration: none; display: inline-block; border-radius: 4px; font-size: 16px; }
input[type="submit"]:disabled, button:disabled { background-color: rgb(221, 221, 221); }
input[type="submit"]:hover:enabled, button:hover:enabled { background-color: rgb(85, 85, 85); }
			]]>
	</style>
</defs>
<path fill="#333333" d="M0,100c1.333,0,2.667,0,4-0.001c1.333-0.001,2.667-0.003,4-0.01s2.667-0.022,4-0.065
	c1.333-0.044,2.667-0.108,4-0.325s2.667-0.464,4-1.168s2.667-1.576,4-3.056c1.333-1.48,2.667-3.516,4-5.824
	c1.333-2.309,2.667-5.403,4-8.028s2.667-5.684,4-7.722c1.333-2.038,2.667-4.273,4-4.505s2.667-0.348,4-0.348s2.667,1.546,4,2.114
	c1.333,0.568,2.667,1.295,4,1.295s2.667-1.238,4-3.716s2.667-7.002,4-12.671s2.667-14.07,4-21.342
	c1.333-7.272,2.667-16.517,4-22.288S70.667,0,72,0s2.667,0.758,4,2.274c1.333,1.517,2.667,7.778,4,11.872s2.667,9.255,4,12.69
	s2.667,6.154,4,7.923c1.333,1.768,2.667,2.386,4,2.688s2.667,0.151,4,0.453s2.667,0.766,4,1.858c1.333,1.092,2.667,3.057,4,4.695
	s2.667,4.321,4,5.135c1.333,0.813,2.667,1.221,4,1.221s2.667-2.373,4-3.495c1.333-1.122,2.667-3.238,4-3.238s2.667,0.718,4,2.155
	c1.333,1.436,2.667,4.651,4,7.137s2.667,5.622,4,7.777s2.667,3.827,4,5.157s2.667,1.815,4,2.824c1.333,1.009,2.667,1.833,4,3.23
	c1.333,1.398,2.667,3.457,4,5.155s2.667,3.827,4,5.035c1.333,1.207,2.667,2.134,4,2.21s2.667,0.038,4,0.114s2.667,0.383,4,1.148
	s2.667,2.26,4,3.533s2.667,3.165,4,4.105s2.667,1.539,4,1.539s2.667-1.436,4-4.307s2.667-7.418,4-13.081
	c1.333-5.662,2.667-14.135,4-20.893c1.333-6.758,2.667-15.81,4-19.656c1.333-3.846,2.667-5.77,4-5.77s2.667,6.086,4,12.171V100
	c-1.333,0-2.667,0-4,0s-2.667,0-4,0s-2.667,0-4,0s-2.667,0-4,0s-2.667,0-4,0s-2.667,0-4,0s-2.667,0-4,0s-2.667,0-4,0s-2.667,0-4,0
	s-2.667,0-4,0s-2.667,0-4,0s-2.667,0-4,0s-2.667,0-4,0s-2.667,0-4,0s-2.667,0-4,0s-2.667,0-4,0s-2.667,0-4,0s-2.667,0-4,0
	s-2.667,0-4,0s-2.667,0-4,0s-2.667,0-4,0s-2.667,0-4,0s-2.667,0-4,0s-2.667,0-4,0s-2.667,0-4,0s-2.667,0-4,0s-2.667,0-4,0
	s-2.667,0-4,0s-2.667,0-4,0s-2.667,0-4,0s-2.667,0-4,0s-2.667,0-4,0s-2.667,0-4,0s-2.667,0-4,0s-2.667,0-4,0s-2.667,0-4,0
	s-2.667,0-4,0s-2.667,0-4,0s-2.667,0-4,0s-2.667,0-4,0s-2.667,0-4,0s-2.667,0-4,0s-2.667,0-4,0s-2.667,0-4,0s-2.667,0-4,0
	s-2.667,0-4,0s-2.667,0-4,0s-2.667,0-4,0s-2.667,0-4,0S1.333,100,0,100L0,100z"/>
</svg>
